X:1
M:6/8
K:A
c/2d/2|efe dcB|A2c E2c|c^Bc edc|B3 Bcd|
efe dcB|A2c Eef|gfe dcB|A3 A2:|
c/2d/2|e2c a2g|f2d b2a|g2B Bdf|e3 ecd|
e2c a2g|f2d b2a|gfe dcB|A3 A2:|
d/2B/2|G2G F2A|B2A A2G|F3 EFE|F2A B2d|d3 d3|
e2c d2e|fgf f2e|d2G AGF|EFG G3::
e2e cBA|e2e ecA|c2e e2c|d2d e2d|
f2e dec|B2G EAc|fef agf|e3 -d2:|